<?xml version="1.0" encoding="UTF-8"?>
<map version="1.10" tiledversion="1.12.2" orientation="orthogonal" renderorder="right-down" width="30" height="20" tilewidth="32" tileheight="32" infinite="0" nextlayerid="8" nextobjectid="1">
 <tileset firstgid="1" name="Interiors_free_32x32" tilewidth="32" tileheight="32" tilecount="1424" columns="16">
  <image source="../Desktop/My map/Modern tiles_Free/Interiors_free/32x32/Interiors_free_32x32.png" width="512" height="2848"/>
 </tileset>
 <tileset firstgid="1425" name="tileset" tilewidth="32" tileheight="32" tilecount="216" columns="18">
  <image source="../Desktop/My map/tileset.png" width="576" height="384"/>
 </tileset>
 <tileset firstgid="1641" name="Room_Builder_free_32x32" tilewidth="32" tileheight="32" tilecount="391" columns="17">
  <image source="../Desktop/My map/Modern tiles_Free/Interiors_free/32x32/Room_Builder_free_32x32.png" width="544" height="736"/>
 </tileset>
 <layer id="6" name="Tile Layer 6" width="30" height="20" visible="0">
  <data encoding="csv">
1653,1653,1653,1653,1653,1653,1653,1653,0,0,0,0,0,0,0,0,0,0,0,0,0,0,0,0,1653,1653,1653,1653,1653,1653,
1653,1653,1653,1653,1653,1653,1653,1653,0,0,0,0,0,0,0,0,0,0,0,0,0,0,0,0,1653,1653,1653,1653,1653,1653,
1653,1653,1653,1653,1653,1653,1653,0,0,0,0,0,0,0,0,0,0,0,0,0,0,0,0,0,1653,1653,1653,1653,1653,1653,
1653,1653,1653,1653,0,1653,0,0,0,0,0,0,0,0,0,0,0,0,0,0,0,0,0,0,1653,1653,1653,1653,1653,1653,
1653,1653,1653,1653,1653,0,0,0,0,0,0,0,0,0,0,0,0,0,0,0,0,0,0,0,1653,1653,1653,1653,1653,1653,
1653,1653,1653,1653,1653,0,0,0,0,0,0,0,0,0,0,0,0,0,0,0,0,0,0,0,1653,1653,1653,1653,1653,1653,
1653,1653,1653,1653,1653,0,0,0,0,0,0,0,0,0,0,0,0,0,0,0,0,0,1653,1653,1653,1653,1653,1653,1653,1653,
1653,1653,1653,1653,0,0,0,0,0,0,0,0,0,0,0,0,0,0,0,0,0,0,1653,1653,1653,1653,1653,1653,1653,1653,
1653,1653,1653,1653,0,0,0,0,0,0,0,0,0,0,0,0,0,0,0,0,0,0,1653,1653,1653,1653,1653,1653,1653,1653,
1653,1653,1653,1653,0,0,0,0,0,0,0,0,0,0,0,0,0,0,0,0,0,0,1653,1653,1653,1653,1653,1653,1653,1653,
1653,1653,1653,1653,1653,0,0,0,0,0,0,0,0,0,0,0,0,0,0,0,0,0,1653,1653,1653,1653,1653,1653,1653,1653,
1653,1653,1653,1653,0,0,0,0,0,0,0,0,0,0,0,0,0,0,0,0,0,0,1653,1653,1653,1653,1653,1653,1653,1653,
1653,1653,1653,1653,0,0,0,0,0,0,0,0,0,0,0,0,0,0,0,0,0,0,1653,1653,1653,1653,1653,1653,1653,1653,
1653,1653,1653,1653,0,0,0,0,0,0,0,0,0,0,0,0,0,0,0,0,0,0,1653,1653,1653,1653,1653,1653,1653,1653,
1653,1653,1653,1653,1653,1653,1653,1653,1653,1653,1653,1653,1653,1653,0,0,0,0,0,0,1653,1653,1653,1653,1653,1653,1653,1653,1653,1653,
1653,1653,1653,1653,1653,1653,1653,1653,1653,1653,1653,1653,1653,1653,1653,0,0,0,0,0,1653,1653,1653,1653,1653,1653,1653,1653,1653,1653,
1653,1653,1653,1653,1653,1653,1653,1653,1653,1653,1653,1653,1653,1653,1653,1653,1653,1653,1653,1653,1653,1653,1653,1653,1653,1653,1653,1653,1653,1653,
1653,1653,1653,1653,1653,1653,1653,1653,1653,1653,1653,1653,1653,1653,1653,1653,1653,1653,1653,1653,1653,1653,1653,1653,1653,1653,1653,1653,1653,1653,
1653,1653,1653,1653,1653,1653,1653,1653,1653,1653,1653,1653,1653,1653,1653,1653,1653,1653,1653,1653,1653,1653,1653,1653,1653,1653,1653,1653,1653,1653,
1653,1653,1653,1653,1653,1653,1653,1653,1653,1653,1653,1653,1653,1653,1653,1653,1653,1653,1653,1653,1653,1653,1653,1653,1653,1653,1653,1653,1653,1653
</data>
 </layer>
 <layer id="2" name="floor wall" width="30" height="20">
  <data encoding="csv">
0,0,0,0,0,0,0,54,58,58,58,56,1475,1476,1475,1476,55,58,58,58,58,58,58,58,57,0,0,0,0,0,
0,0,0,0,0,0,0,70,74,74,74,72,1493,1494,1493,1494,71,74,74,74,74,74,74,74,73,0,0,0,0,0,
0,0,0,0,0,0,0,70,1475,1476,1475,1476,1475,1476,1475,1476,1475,1475,1475,1475,1475,1476,1475,1475,73,0,0,0,0,0,
0,0,0,0,0,0,0,70,1493,1494,1493,1494,1493,1494,1493,1494,1493,1493,1493,1493,1493,1494,1493,1493,73,0,0,0,0,0,
0,0,0,70,1475,1476,1475,1476,1475,1476,1475,1476,1475,1476,1475,1475,1475,1475,1475,1475,1476,1475,1476,1475,73,0,0,0,0,0,
0,0,0,70,1493,1494,1493,1494,1493,1494,1475,1475,1475,1476,1475,1475,1475,1493,1493,1493,1494,1493,1494,1493,73,0,0,0,0,0,
0,0,0,70,1475,1476,1475,1476,1475,1493,1475,1475,1475,1475,1493,1493,1493,1493,1494,1475,1476,1475,73,0,0,0,0,0,0,0,
0,0,0,70,1493,1494,1493,1494,1493,1493,1493,1493,1493,1493,1493,1494,1476,1476,1476,1475,1475,1493,1475,1476,1475,1476,1475,1476,0,0,
0,0,0,70,1475,1476,1475,1476,1475,1476,1493,1494,1494,1494,1494,1494,1494,1476,1494,1493,1475,1476,1493,1494,1493,1494,1493,1494,0,0,
0,0,0,70,1493,1494,1493,1494,1493,1494,1494,1494,1494,1476,1476,1493,1494,1494,1494,1475,1475,1476,1704,1475,1476,1476,1475,1476,0,0,
0,0,0,70,1475,1476,1475,1476,1475,1476,1475,1476,1494,1494,1494,1494,1476,1476,1476,1476,1493,1494,73,1493,1494,1494,1493,1494,0,0,
0,0,0,70,1493,1494,1493,1494,1475,1475,1475,1476,1475,1476,1493,1494,1494,1494,1494,1494,1475,1476,73,1704,1475,1476,1475,1476,0,0,
0,0,0,70,1475,1475,1475,1475,1493,1493,1475,1476,1493,1494,1475,1475,1475,1475,1475,1475,1475,1476,73,0,1493,1494,1493,1494,0,0,
0,0,0,70,1493,1493,1493,1493,1493,1494,1493,1494,1493,1494,1493,1493,1493,1493,1493,1493,1493,1494,73,0,1475,1476,1475,1476,0,0,
0,0,0,0,0,0,0,0,0,0,0,0,1475,1475,1475,1475,1475,1476,1475,1476,57,0,0,0,1493,1494,1493,1494,0,0,
0,0,0,0,0,0,0,0,0,0,0,0,1493,1493,1493,1493,1493,1494,1493,1494,73,0,0,1703,1704,1475,1475,1476,0,0,
0,0,0,0,0,0,0,0,0,0,0,0,0,0,0,0,0,0,0,0,0,0,0,0,0,1493,1493,1494,0,0,
0,0,0,0,0,0,0,0,0,0,0,0,0,0,0,0,0,0,0,0,0,0,0,0,0,0,0,0,0,0,
0,0,0,0,0,0,0,0,0,0,0,0,0,0,0,0,0,0,0,0,0,0,0,0,0,0,0,0,0,0,
0,0,0,0,0,0,0,0,0,0,0,0,0,0,0,0,0,0,0,0,0,0,0,0,0,0,0,0,0,0
</data>
 </layer>
 <layer id="7" name="Tile Layer 7" width="30" height="20">
  <data encoding="csv">
0,0,0,0,0,0,0,0,0,0,0,0,0,0,0,0,0,0,0,0,0,0,0,0,0,0,0,0,0,0,
0,0,0,0,0,0,0,0,0,0,0,0,0,0,0,0,0,0,0,0,0,0,0,0,0,0,0,0,0,0,
0,0,0,0,0,0,0,0,0,0,0,0,0,0,0,0,0,0,0,0,0,0,0,0,0,0,0,0,0,0,
0,0,0,0,0,0,0,0,0,0,0,0,0,0,0,0,0,0,0,0,0,0,0,0,0,0,0,0,0,0,
0,0,0,0,0,0,0,0,0,702,703,0,0,0,0,702,703,0,0,0,0,0,0,0,0,0,0,0,0,0,
0,0,0,0,0,0,0,0,0,0,0,0,0,0,0,0,0,0,0,0,0,0,0,0,0,0,0,0,0,0,
0,0,0,0,0,0,0,0,0,0,0,0,0,0,0,0,0,0,0,0,0,0,0,0,0,0,0,0,0,0,
0,0,0,0,0,0,0,0,0,0,0,0,0,0,0,0,0,0,0,0,0,0,0,0,0,0,0,0,0,0,
0,0,0,0,0,0,0,0,0,0,0,0,0,0,0,0,0,0,0,0,0,0,0,0,0,0,572,573,0,0,
0,0,0,0,0,0,0,0,0,0,0,0,0,0,0,0,0,0,0,0,0,0,0,0,0,0,588,589,0,0,
0,0,0,0,0,0,0,0,0,0,0,0,0,0,0,0,0,0,0,0,0,0,0,0,0,0,604,605,0,0,
0,0,0,0,0,0,0,0,0,0,0,0,0,0,0,0,0,0,0,0,0,0,0,0,0,0,572,573,0,0,
0,0,0,0,0,0,0,0,0,0,0,0,0,0,0,0,0,0,0,0,0,0,0,0,0,0,588,589,0,0,
0,0,0,0,0,0,0,0,0,0,0,0,0,0,0,0,0,0,0,0,0,0,0,0,0,0,604,605,0,0,
0,0,0,0,0,0,0,0,0,0,0,0,0,0,0,0,0,0,0,0,0,0,0,0,0,0,572,573,0,0,
0,0,0,0,0,0,0,0,0,0,0,0,0,0,0,0,0,0,0,0,0,0,0,0,0,0,588,589,0,0,
0,0,0,0,0,0,0,0,0,0,0,0,0,0,0,0,0,0,0,0,0,0,0,0,0,0,604,605,0,0,
0,0,0,0,0,0,0,0,0,0,0,0,0,0,0,0,0,0,0,0,0,0,0,0,0,0,0,0,0,0,
0,0,0,0,0,0,0,0,0,0,0,0,0,0,0,0,0,0,0,0,0,0,0,0,0,0,0,0,0,0,
0,0,0,0,0,0,0,0,0,0,0,0,0,0,0,0,0,0,0,0,0,0,0,0,0,0,0,0,0,0
</data>
 </layer>
 <layer id="4" name="Tile Layer 4" width="30" height="20">
  <data encoding="csv">
0,0,0,0,0,0,0,0,0,0,0,0,0,0,0,0,0,0,0,0,0,0,0,0,0,0,0,0,0,0,
0,0,0,0,0,0,0,0,0,469,1157,1159,0,0,0,0,0,0,0,442,0,0,0,0,0,0,0,0,0,0,
0,0,0,0,0,0,0,0,0,0,1173,1175,0,0,0,0,0,0,0,0,0,0,0,0,0,0,0,0,0,0,
0,0,0,0,0,0,0,0,0,0,0,0,0,0,0,0,0,0,0,0,0,0,0,0,0,0,0,0,0,0,
0,0,0,0,0,0,0,0,0,0,0,0,0,0,0,0,0,0,0,0,0,0,0,0,0,0,0,0,0,0,
0,0,0,0,715,716,0,0,0,0,0,0,0,0,0,0,0,0,0,0,0,0,0,0,0,0,0,0,0,0,
0,0,0,0,731,732,0,0,0,0,81,0,0,0,0,83,0,0,0,0,0,54,55,58,58,58,58,58,57,0,
0,0,0,0,747,748,0,0,0,0,0,0,0,0,0,0,0,0,0,0,0,70,71,74,74,74,74,74,73,0,
0,0,0,0,0,0,0,0,0,0,0,0,0,0,0,0,0,0,0,0,0,0,0,0,0,0,571,0,73,0,
0,0,0,0,0,0,0,0,0,0,0,0,0,0,0,0,0,0,0,0,0,0,57,0,0,0,587,0,73,0,
0,0,0,0,0,0,0,0,0,0,0,0,0,0,0,0,0,0,0,0,0,0,70,0,0,0,0,0,73,0,
0,0,0,0,0,0,0,0,0,0,0,0,0,0,0,0,1188,0,0,0,0,0,1703,54,0,0,0,0,73,0,
0,0,0,0,0,0,0,0,0,0,0,0,0,0,0,0,0,0,0,0,0,0,0,70,0,0,237,0,73,0,
0,0,0,0,0,0,0,0,0,0,0,0,0,0,0,1188,0,1188,0,0,0,0,0,70,0,0,0,0,73,0,
0,0,0,0,0,0,0,0,0,0,0,70,0,0,0,0,0,0,0,0,0,0,0,70,0,0,571,0,73,0,
0,0,0,0,0,0,0,0,0,0,0,70,0,0,0,1188,0,1188,0,0,0,0,0,0,54,0,587,0,73,0,
0,0,0,0,0,0,0,0,0,0,0,0,0,0,0,0,0,0,0,0,0,0,0,0,70,0,0,0,73,0,
0,0,0,0,0,0,0,0,0,0,0,0,0,0,0,0,0,0,0,0,0,0,0,0,1703,1704,1704,1704,1705,0,
0,0,0,0,0,0,0,0,0,0,0,0,0,0,0,0,0,0,0,0,0,0,0,0,0,0,0,0,0,0,
0,0,0,0,0,0,0,0,0,0,0,0,0,0,0,0,0,0,0,0,0,0,0,0,0,0,0,0,0,0
</data>
 </layer>
 <layer id="1" name="ground" width="30" height="20">
  <data encoding="csv">
0,0,0,0,0,0,0,0,55,0,0,0,0,0,0,0,0,0,0,0,0,0,1067,1068,0,0,0,0,0,0,
0,0,0,0,0,0,0,0,71,0,1214,1215,0,0,0,0,0,0,0,0,0,0,1083,1084,0,0,0,0,0,0,
0,0,0,54,55,58,58,56,57,0,1230,1231,0,0,0,0,0,0,0,0,0,0,0,0,0,0,0,0,0,0,
0,0,0,70,71,74,74,72,73,0,0,0,0,0,0,0,0,0,0,0,0,0,1284,1285,0,0,0,0,0,0,
0,0,0,0,0,0,0,0,0,0,0,0,0,0,0,0,0,0,0,0,0,0,1300,1301,0,0,0,0,0,0,
0,0,0,0,0,0,0,0,0,0,0,0,0,0,0,0,0,0,0,0,0,0,1316,1317,0,0,0,0,0,0,
0,0,0,0,1286,1287,0,0,0,0,81,0,0,0,0,0,0,0,0,0,0,0,0,243,244,225,226,56,0,0,
0,0,0,0,1302,1303,0,0,0,0,116,0,0,0,0,100,0,0,0,0,0,0,0,259,260,241,242,733,0,0,
0,0,0,0,1302,1303,0,0,0,0,113,132,0,132,0,115,0,0,0,0,0,0,0,275,276,0,0,749,0,0,
0,0,0,0,1302,1303,0,0,0,0,129,148,84,148,84,131,0,0,0,0,0,0,54,0,0,0,0,0,0,0,
0,0,0,0,1302,1303,0,0,0,0,0,0,0,0,0,0,0,0,0,0,0,0,0,0,0,0,0,0,0,0,
0,0,0,0,1318,1319,0,0,0,0,0,0,0,0,0,728,729,730,0,0,0,0,0,0,0,0,0,0,0,0,
0,0,0,0,0,0,0,0,0,0,0,0,0,0,0,744,745,746,0,0,0,733,0,0,0,0,0,0,0,0,
0,0,0,0,0,0,0,0,0,0,0,0,0,0,0,744,745,746,0,0,0,749,0,0,0,0,0,0,0,0,
0,0,0,0,0,0,0,0,0,0,0,0,0,0,0,744,745,746,0,0,0,0,0,0,0,0,0,0,0,0,
0,0,0,0,0,0,0,0,0,0,0,0,0,0,0,744,745,746,0,0,0,0,0,0,0,0,0,0,0,0,
0,0,0,0,0,0,0,0,0,0,0,0,0,0,0,0,0,0,0,0,0,0,0,0,0,0,0,0,0,0,
0,0,0,0,0,0,0,0,0,0,0,0,0,0,0,0,0,0,0,0,0,0,0,0,0,0,0,0,0,0,
0,0,0,0,0,0,0,0,0,0,0,0,0,0,0,0,0,0,0,0,0,0,0,0,0,0,0,0,0,0,
0,0,0,0,0,0,0,0,0,0,0,0,0,0,0,0,0,0,0,0,0,0,0,0,0,0,0,0,0,0
</data>
 </layer>
 <layer id="3" name="tree" width="30" height="20">
  <data encoding="csv">
0,0,0,0,0,0,0,0,0,0,0,0,57,0,0,54,0,0,0,0,0,0,0,0,0,0,0,0,0,0,
0,0,0,0,0,0,0,0,0,0,0,0,73,0,0,70,653,653,653,0,651,652,0,0,0,0,0,0,0,0,
0,0,0,0,0,0,0,0,718,719,0,0,0,0,0,0,669,669,669,0,667,668,0,0,0,0,0,0,0,0,
0,0,0,0,0,0,0,0,734,735,0,0,0,0,0,0,0,0,0,0,0,0,0,0,0,0,0,0,0,0,
0,0,0,0,0,0,0,0,0,0,0,0,0,0,0,0,0,0,0,0,0,0,0,0,0,0,0,0,0,0,
0,0,0,0,0,0,0,0,0,0,0,0,0,0,0,0,0,0,0,0,0,0,0,0,0,0,0,0,0,0,
0,0,0,0,0,0,0,0,0,0,0,0,0,0,0,0,0,0,0,0,0,0,0,785,817,0,0,0,0,0,
0,0,0,0,0,0,0,0,0,0,0,0,0,0,0,0,0,0,0,0,0,0,0,801,0,0,0,0,0,0,
0,0,0,0,0,0,0,0,0,0,0,0,0,0,0,0,0,0,0,0,0,0,0,0,0,0,0,0,0,0,
0,0,0,0,0,0,0,0,0,0,0,0,0,0,0,0,0,0,0,0,0,640,0,0,0,0,0,0,0,0,
0,0,0,0,715,716,0,0,0,0,0,0,0,0,0,0,0,0,0,0,0,656,0,168,169,0,0,0,0,0,
0,0,0,0,731,732,0,0,0,0,0,0,0,0,0,0,851,0,0,88,0,672,0,0,185,0,0,0,0,0,
0,0,0,0,747,748,0,0,0,0,0,0,0,0,0,0,867,0,0,0,0,0,0,0,185,0,0,0,0,0,
0,0,0,0,0,0,0,0,0,0,0,0,0,0,0,0,0,0,0,0,0,0,0,0,185,0,0,0,0,0,
0,0,0,0,0,0,0,0,0,0,0,0,733,0,0,0,591,0,0,0,0,0,0,0,185,0,0,0,0,0,
0,0,0,0,0,0,0,0,0,0,0,0,749,0,0,0,607,0,0,0,0,0,0,0,0,0,0,0,0,0,
0,0,0,0,0,0,0,0,0,0,0,0,0,0,0,0,0,0,0,0,0,0,0,0,0,0,0,0,0,0,
0,0,0,0,0,0,0,0,0,0,0,0,0,0,0,0,0,0,0,0,0,0,0,0,0,0,0,0,0,0,
0,0,0,0,0,0,0,0,0,0,0,0,0,0,0,0,0,0,0,0,0,0,0,0,0,0,0,0,0,0,
0,0,0,0,0,0,0,0,0,0,0,0,0,0,0,0,0,0,0,0,0,0,0,0,0,0,0,0,0,0
</data>
 </layer>
 <layer id="5" name="Tile Layer 5" width="30" height="20">
  <data encoding="csv">
0,0,0,0,0,0,0,0,0,0,0,0,0,268,269,0,0,0,0,0,0,0,0,0,0,0,0,0,0,0,
0,0,0,0,0,0,0,0,0,0,0,0,0,0,0,0,0,763,764,0,0,0,0,0,0,0,0,0,0,0,
0,0,0,0,0,451,452,0,0,0,0,0,0,0,0,0,0,0,0,0,0,0,0,0,0,0,0,0,0,0,
0,0,0,0,0,467,468,0,0,0,0,0,0,0,0,0,0,0,0,0,0,0,0,0,0,0,0,0,0,0,
0,0,0,0,0,0,0,0,0,0,0,0,0,0,0,0,0,0,0,0,0,0,0,0,0,0,0,0,0,0,
0,0,0,0,0,0,0,0,0,0,0,0,0,0,0,0,0,0,0,0,0,0,0,0,0,0,0,0,0,0,
0,0,0,0,0,0,0,0,0,0,0,0,0,0,0,0,0,0,0,0,0,0,0,0,0,0,0,0,0,0,
0,0,0,0,0,0,190,191,192,0,0,0,0,0,0,0,0,0,0,0,0,0,257,0,0,0,0,0,0,0,
0,0,0,0,0,0,206,207,208,0,0,0,0,0,0,0,0,0,0,0,0,0,0,0,0,0,0,0,0,0,
0,0,0,0,0,0,222,223,224,0,0,0,0,0,0,0,0,0,0,0,0,0,0,928,0,0,0,0,0,0,
0,0,0,0,0,0,238,239,240,0,0,0,0,0,0,0,0,0,0,0,0,0,0,944,0,0,0,0,0,0,
0,0,0,0,0,0,0,0,0,0,0,0,0,0,0,0,0,0,0,0,0,0,0,0,0,0,0,0,0,0,
0,0,0,0,0,0,0,0,0,0,0,0,0,0,0,0,0,0,0,0,0,0,0,0,0,0,0,0,0,0,
0,0,0,0,0,0,0,0,0,0,0,0,0,0,0,0,0,0,0,0,0,0,0,0,0,0,0,0,0,0,
0,0,0,1703,1704,1704,1704,1704,1704,1704,1704,1704,0,0,0,0,0,0,0,0,1704,1704,1705,0,0,0,0,0,0,0,
0,0,0,0,0,0,0,0,0,0,0,0,0,0,0,0,0,0,0,0,0,0,0,0,0,0,0,0,0,0,
0,0,0,0,0,0,0,0,0,0,0,1703,1704,1704,1704,1704,1704,1704,1704,1704,1705,0,0,0,0,0,0,0,0,0,
0,0,0,0,0,0,0,0,0,0,0,0,0,0,0,0,0,0,0,0,0,0,0,0,0,0,0,0,0,0,
0,0,0,0,0,0,0,0,0,0,0,0,0,0,0,0,0,0,0,0,0,0,0,0,0,0,0,0,0,0,
0,0,0,0,0,0,0,0,0,0,0,0,0,0,0,0,0,0,0,0,0,0,0,0,0,0,0,0,0,0
</data>
 </layer>
</map>
